X:1
T:Fiume e fonti
T:Fiume e fonti
T:Giovanni Ghizzolo
C:Giovanni Ghizzolo
%%score 1 { 2 | 3 }
L:1/8
Q:1/4=120
M:3/4
K:F
V:1 treble nm="Soprano" snm="S"
V:2 treble nm="MusicXML Part"
V:3 bass 
V:1
"^Source: Madrigali et Arie---Libro terzo---Venetia---A.Raverij---1609.\nEditor: André Vierendeels (26/12/09)\nContinuo: André Vierendeels" z2 cF GA"^Fiumi e fonte" | %1
w: Fiu- * mi'e- *|
w: Gri- * do'e _|
w: No- * t'e _|
w: Dun- * que _|
 B2 G2"^SCHERZO" dG | AB c2 A2 | dc BA B2 | G2 GF GA | F4 F2 :: z2 AG AB | c6 | F2 GF GA | B4 B2 | %10
w: fon- ti bo- *|schi'e _ mon- ti,|sas- * si'e _ sier-|pi fie- * r'e _|ser- pi,|a- * scol- *|ta-|t'i miei _ la- *|men- ti|
w: rac- cio Ar- *|do'e ag- gac- cio|pian- * go'e- * mo-|ro sem- * pre ho-|no- re|Cor _ di _|Ti-|gre ch'en- * tral _|pet- to|
w: gior- no sem- *|pre'in- * tor- no|vi- * va _ fiam-|ma a _ dram- *|* ma.|mi _ con- *|su-|ma'il cor _ e _|sfa- ce|
w: sia- te per _|pie- * ta- te|ne'i _ tor- * men-|ti tut- * t'in- *|ten- ti,|e _ poi _|di-|te'ahi du- * ra _|sor- te|
 d2 cB AG | A3 B c2 | FD GE AF | G6 | F6 :| %15
w: ch'a pie- * ta _||mo- * vo _ n'i _|ven-|ti.|
w: d'im- pie- * ta _|sol _ _|ha _ ri- * cet- *||to.|
w: ne al _ mio _|mal _ _|ri- * tro- * vo _|pa-|ce.|
w: ver' a- * man- *|t'e _ _|gi- * on- * t'a- *|mor-|te.|
V:2
 [FAc]6 | [DGB]6 | [FAc]6 | [DFB]6 | [EGc]6 | [FAc]6 :: [F-Ac-]6 | [FAc]6 | [FA]2 [Gc]2 [Ac]2 | %9
 [DFB]6 | [DF]2 [FA]2 [DB]2"^Note: original keys: Ut 1st, Fa 4rth" | [FA]4 [CFA]2 | %12
 [DG]2 [EG]2 [DFA]2 | [DG]F [EG]A [EB]2 | [FAc]6 :| %15
V:3
 F,4 F,2 | G,4 G,2 | F,4 F,2 | B,,4 B,,2 | C,4 C,2 | F,,4 F,,2 :: F,,4 F,,2 | F,6 | D,2 _E,2 F,2 | %9
 B,,4 B,,2 | B,2 A,2 G,2 | F,4 A,,2 | B,,2 C,2 D,2 | B,,2 C,4 | F,,6 :| %15

